X: 56
P: Longways for as many as will
M: 6/4
L: 1/4
K: Em
efg fge | ^def B2e | dcB cBA | B3 B2 |]\
ge^c af^d | bge af^d | efg Be^d | e3- e3 |]

